src/assets/bold/lm-polygon-area-bold.svg

<svg width="24" height="24" viewBox="0 0 24 24" fill="none" xmlns="http://www.w3.org/2000/svg" fill="currentColor">
<path d="M21.1463 8.20876C21.3963 8.39441 21.5824 8.65328 21.6786 8.94945C21.7749 9.24562 21.7766 9.5644 21.6835 9.86158L18.6835 19.9434L18.6778 19.9594C18.5814 20.2621 18.3909 20.5262 18.1342 20.7133C17.8774 20.9004 17.5677 21.0009 17.25 21H6.75002C6.43279 21.0003 6.12372 20.8996 5.86753 20.7125C5.61134 20.5254 5.42134 20.2616 5.32502 19.9594L5.31939 19.9434L2.31939 9.86158C2.22598 9.56469 2.22724 9.24609 2.32299 8.94995C2.41873 8.6538 2.60423 8.39478 2.85377 8.20876L11.1131 1.79158C11.37 1.60201 11.6808 1.49973 12 1.49973C12.3192 1.49973 12.6301 1.60201 12.8869 1.79158L21.1463 8.20876ZM19.3707 12.3666L20.2444 9.42751L20.25 9.4097L18.7526 8.24628C18.742 8.25826 18.7311 8.26991 18.7198 8.28121L7.50097 19.5H12.1898L19.1897 12.5C19.2431 12.4466 19.3041 12.4016 19.3707 12.3666ZM6.43526 18.4432L17.5593 7.31919L14.8051 5.17936C14.7798 5.21568 14.7512 5.24978 14.7198 5.28121L5.31593 14.6851L6.43526 18.4432ZM4.82884 13.0496L13.6199 4.25856L12 3.00001L3.74439 9.41158L3.75002 9.42751L4.82884 13.0496ZM18.4928 15.3194L14.3123 19.5H17.25L18.4928 15.3194Z" fill="black"/>
</svg>

<svg xmlns="http://www.w3.org/2000/svg" width="24" height="24" fill="currentColor" viewBox="0 0 24 24">
  <path d="M21.146 8.209a1.5 1.5 0 0 1 .537 1.653l-3 10.081-.005.016A1.494 1.494 0 0 1 17.25 21H6.75a1.494 1.494 0 0 1-1.425-1.04l-.006-.017-3-10.081a1.5 1.5 0 0 1 .535-1.653l8.26-6.417a1.494 1.494 0 0 1 1.773 0l8.26 6.417Zm-1.775 4.158.873-2.94.006-.017-1.497-1.164a.785.785 0 0 1-.033.035L7.5 19.5h4.689l7-7a.748.748 0 0 1 .18-.133ZM6.435 18.443 17.56 7.32l-2.754-2.14a.754.754 0 0 1-.085.102l-9.404 9.404 1.12 3.758ZM4.83 13.05l8.79-8.791L12 3 3.744 9.412l.006.016 1.079 3.622Zm13.664 2.27-4.18 4.18h2.937l1.243-4.18Z"/>
</svg>
